X:417
T: TYROLER LASST UNS STREITEN
N: E0346
O: Europa, Mitteleuropa, Oesterreich, Tirol
R: historisches Lied, Krieg (1809)
M: 6/8
L: 1/16
K: D
D,F, | A,4A,2A,4A,2 | A,6F,4
A,2 | G,2F,2G,2E,2F,2G,2 | A,6z4
D,F, | A,4A,2A,4A,2 | A,4D2F4
D2 | E4E2C3B,C2 | D6z4
D,2 | E,4E,2D3B,^G,2 | A,4C2E,4
E,2 | E,4E,2D3B,^G,2 | A,8z2
G,2 | F,4F,2G,3F,G,2 | A,4D2F4
D2 | E4E2C3B,C2 | D6z4
D,2 | D,4F,2F,4A,2 | A,4D2F4
D2 | E4E2C3B,C2 | D6z4

@@@ Tune index: 4067
